images/list.svg

<?xml version="1.0"?>
<svg xmlns="http://www.w3.org/2000/svg" xmlns:xlink="http://www.w3.org/1999/xlink" version="1.1" id="Layer_1" x="0px" y="0px" viewBox="0 0 224.075 224.075" style="enable-background:new 0 0 224.075 224.075;" xml:space="preserve" width="512px" height="512px" class=""><g><g transform="translate(0 -562.36)">
	<g>
		<g>
			<path d="M63,590.201h146.9c18.9,0.5,18.9-28.3,0-27.8H63C44.1,561.901,44.1,590.701,63,590.201z" data-original="#000000" class="active-path" data-old_color="#0b92cd" fill="#0b92cd"/>
			<path d="M209.9,660.501H63c-18.9-0.5-18.9,28.3,0,27.8h146.9C228.8,688.801,228.8,660.001,209.9,660.501z" data-original="#000000" class="active-path" data-old_color="#0b92cd" fill="#0b92cd"/>
			<path d="M209.9,758.101H63c-18.9,0-18.9,28.3,0,28.3h146.9C228.8,786.401,228.8,758.101,209.9,758.101z" data-original="#000000" class="active-path" data-old_color="#0b92cd" fill="#0b92cd"/>
			<path d="M14.2,758.001c-7.9,0-14.2,6.3-14.2,14.2s6.3,14.2,14.2,14.2c7.3,0,13.6-6.3,13.6-14.2     C27.8,764.401,21.5,758.101,14.2,758.001z" data-original="#000000" class="active-path" data-old_color="#0b92cd" fill="#0b92cd"/>
			<path d="M14.2,660.501c-7.9,0-14.2,6.3-14.2,13.6c0,7.9,6.3,14.2,14.2,14.2c7.3,0,13.6-6.3,13.6-14.2     C27.8,666.801,21.5,660.501,14.2,660.501z" data-original="#000000" class="active-path" data-old_color="#0b92cd" fill="#0b92cd"/>
			<path d="M14.2,562.401c-7.9,0-14.2,6.3-14.2,14.2c0,7.3,6.3,13.6,14.2,13.6c7.3,0,13.6-6.3,13.6-13.6     C27.8,568.701,21.5,562.401,14.2,562.401z" data-original="#000000" class="active-path" data-old_color="#0b92cd" fill="#0b92cd"/>
		</g>
	</g>
</g></g> </svg>

<svg enable-background="new 0 0 224.075 224.075" height="512" viewBox="0 0 224.075 224.075" width="512" xmlns="http://www.w3.org/2000/svg"><g fill="#0b92cd" transform="translate(0 -562.36)"><path d="m63 590.201h146.9c18.9.5 18.9-28.3 0-27.8h-146.9c-18.9-.5-18.9 28.3 0 27.8z"/><path d="m209.9 660.501h-146.9c-18.9-.5-18.9 28.3 0 27.8h146.9c18.9.5 18.9-28.3 0-27.8z"/><path d="m209.9 758.101h-146.9c-18.9 0-18.9 28.3 0 28.3h146.9c18.9 0 18.9-28.3 0-28.3z"/><path d="m14.2 758.001c-7.9 0-14.2 6.3-14.2 14.2s6.3 14.2 14.2 14.2c7.3 0 13.6-6.3 13.6-14.2 0-7.8-6.3-14.1-13.6-14.2z"/><path d="m14.2 660.501c-7.9 0-14.2 6.3-14.2 13.6 0 7.9 6.3 14.2 14.2 14.2 7.3 0 13.6-6.3 13.6-14.2 0-7.3-6.3-13.6-13.6-13.6z"/><path d="m14.2 562.401c-7.9 0-14.2 6.3-14.2 14.2 0 7.3 6.3 13.6 14.2 13.6 7.3 0 13.6-6.3 13.6-13.6 0-7.9-6.3-14.2-13.6-14.2z"/></g></svg>
